public/icons/tokens/steth.svg

<svg width="256" height="256" viewBox="0 0 256 256" fill="none" xmlns="http://www.w3.org/2000/svg">
<g clip-path="url(#clip0_1809_1897)">
<path d="M128 256.006C198.692 256.006 256 198.698 256 128.006C256 57.3134 198.692 0.00585938 128 0.00585938C57.3076 0.00585938 0 57.3134 0 128.006C0 198.698 57.3076 256.006 128 256.006Z" fill="white"/>
<path d="M88.8975 120.994L87.7882 122.696C75.2767 141.889 78.0708 167.024 94.5061 183.127C104.175 192.601 116.847 197.339 129.519 197.34C129.519 197.34 129.519 197.34 88.8975 120.994Z" fill="#00A3FF"/>
<path opacity="0.6" d="M129.507 144.197L88.8853 120.994C129.507 197.34 129.507 197.34 129.507 197.34C129.507 180.712 129.507 161.659 129.507 144.197Z" fill="#00A3FF"/>
<path opacity="0.6" d="M170.186 120.994L171.296 122.696C183.807 141.889 181.012 167.024 164.577 183.127C154.909 192.601 142.237 197.339 129.564 197.34C129.564 197.34 129.564 197.34 170.186 120.994Z" fill="#00A3FF"/>
<path opacity="0.2" d="M129.561 144.197L170.182 120.994C129.561 197.34 129.561 197.34 129.561 197.34C129.561 180.712 129.561 161.659 129.561 144.197Z" fill="#00A3FF"/>
<path opacity="0.2" d="M129.573 92.3611V132.381L164.564 112.384L129.573 92.3611Z" fill="#00A3FF"/>
<path opacity="0.6" d="M129.563 92.3611L94.5469 112.383L129.563 132.381V92.3611Z" fill="#00A3FF"/>
<path d="M129.563 58.7051L94.5469 112.396L129.563 92.3179V58.7051Z" fill="#00A3FF"/>
<path opacity="0.6" d="M129.573 92.3115L164.591 112.39L129.573 58.6725V92.3115Z" fill="#00A3FF"/>
</g>
<defs>
<clipPath id="clip0_1809_1897">
<rect width="256" height="256" fill="white"/>
</clipPath>
</defs>
</svg>

<svg width="256" height="256" viewBox="0 0 256 256" fill="none" xmlns="http://www.w3.org/2000/svg"><g clip-path="url(#a)"><path d="M128 256.006c70.692 0 128-57.308 128-128 0-70.693-57.308-128-128-128-70.692 0-128 57.307-128 128 0 70.692 57.308 128 128 128Z" fill="#fff"/><path d="m88.897 120.994-1.109 1.702c-12.511 19.193-9.717 44.328 6.718 60.431 9.669 9.474 22.341 14.212 35.013 14.213l-40.622-76.346Z" fill="#00A3FF"/><path opacity=".6" d="m129.507 144.197-40.622-23.203 40.622 76.346v-53.143Zm40.679-23.203 1.11 1.702c12.511 19.193 9.716 44.328-6.719 60.431-9.668 9.474-22.34 14.212-35.013 14.213l40.622-76.346Z" fill="#00A3FF"/><path opacity=".2" d="m129.561 144.197 40.621-23.203-40.621 76.346v-53.143Zm.012-51.836v40.02l34.991-19.997-34.991-20.023Z" fill="#00A3FF"/><path opacity=".6" d="m129.563 92.361-35.016 20.022 35.016 19.998v-40.02Z" fill="#00A3FF"/><path d="m129.563 58.705-35.016 53.691 35.016-20.078V58.705Z" fill="#00A3FF"/><path opacity=".6" d="m129.573 92.311 35.018 20.079-35.018-53.718v33.64Z" fill="#00A3FF"/></g><defs><clipPath id="a"><path fill="#fff" d="M0 0h256v256H0z"/></clipPath></defs></svg>
